dist/svgs/devui-icons/op/select-vertical-layout.svg

<?xml version="1.0" encoding="UTF-8"?>
<svg width="16px" height="16px" viewBox="0 0 16 16" version="1.1" xmlns="http://www.w3.org/2000/svg" xmlns:xlink="http://www.w3.org/1999/xlink">
    <title>操作/上下布局</title>
    <desc>Created with Sketch.</desc>
    <g id="操作/上下布局" stroke="none" stroke-width="1" fill="none" fill-rule="evenodd">
        <path d="M2,0 L14,0 C14.5522847,-1.01453063e-16 15,0.44771525 15,1 L15,5 C15,5.55228475 14.5522847,6 14,6 L2,6 C1.44771525,6 1,5.55228475 1,5 L1,1 C1,0.44771525 1.44771525,1.01453063e-16 2,0 Z M3,2 L3,4 L13,4 L13,2 L3,2 Z M2,10 L14,10 C14.5522847,10 15,10.4477153 15,11 L15,15 C15,15.5522847 14.5522847,16 14,16 L2,16 C1.44771525,16 1,15.5522847 1,15 L1,11 C1,10.4477153 1.44771525,10 2,10 Z M3,12 L3,14 L13,14 L13,12 L3,12 Z M0,7 L16,7 L16,9 L0,9 L0,7 Z" id="形状" fill="#293040"></path>
    </g>
</svg>

<svg xmlns="http://www.w3.org/2000/svg" viewBox="0 0 16 16"><path fill-rule="evenodd" d="M2 0h12a1 1 0 011 1v4a1 1 0 01-1 1H2a1 1 0 01-1-1V1a1 1 0 011-1zm1 2v2h10V2H3zm-1 8h12a1 1 0 011 1v4a1 1 0 01-1 1H2a1 1 0 01-1-1v-4a1 1 0 011-1zm1 2v2h10v-2H3zM0 7h16v2H0V7z"/></svg>
